X:1
T: Miss Gibson Craig
C:William Marshall
R:Strathspey
Q: 128
K:Eb
M:4/4
L:1/16
|:B,2|E3F EDCB, CF3 F3G|E3B G3e B3g eb3|E3F EDCB, CF3 F3G|B,3E EDCB, E4 E2B,2|
E3F EDCB, CF3 F3G|E3B G3e B3g eb3|E3F EDCB, CF3 F3G|B,3E EDCB, E4 E2B,2|
e3f edcB cf3 f3g|e3g c3e B3e GE3|e3f edcB cf3 f3g|edcB c3d e4 e2B2|
e3f edcB cf3 f3g|e3g c3e B3e GE3|A,3c G,3B C3F FG3|B,3E EDCB, E4 E2:|
